app/dist/common/images/upwork.svg

<svg height="18" width="18" xmlns="http://www.w3.org/2000/svg"><path d="m0 0h18v18h-18z" fill="#5bbc2e"/><path d="m12.301 11c-1.26 0-1.517-.927-1.738-1.192l.071-.544c.103-.564.36-1.818 1.667-1.827 1.307-.01 1.697 1.003 1.699 1.827.002.825-.439 1.736-1.699 1.736zm0-4.635c-1.424 0-2.255.867-2.655 2.209l-1.645-3.574h-1.001v3.512c0 .693-.683 1.496-1.5 1.488s-1.5-.795-1.5-1.488v-3.512h-1v3.512c0 1.437 1.044 2.488 2.5 2.488s2.501-1.05 2.501-2.488v-.607l1.368 2.601-.369 3.494h1.25l.313-2.644c.271.19.768.644 1.738.644 1.803 0 2.699-1.417 2.699-2.897s-1.105-2.738-2.699-2.738z" fill="#fff"/></svg>

<!-- by TradingView --><svg width="18" height="18" xmlns="http://www.w3.org/2000/svg"><path fill="#5BBC2E" d="M0 0h18v18H0z"/><path d="M12.301 11c-1.26 0-1.517-.927-1.738-1.192l.071-.544c.103-.564.36-1.818 1.667-1.827 1.307-.01 1.697 1.003 1.699 1.827.002.825-.439 1.736-1.699 1.736zm0-4.635c-1.424 0-2.255.867-2.655 2.209L8.001 5H7v3.512c0 .693-.683 1.496-1.5 1.488C4.683 9.992 4 9.205 4 8.512V5H3v3.512C3 9.949 4.044 11 5.5 11s2.501-1.05 2.501-2.488v-.607l1.368 2.601L9 14h1.25l.313-2.644c.271.19.768.644 1.738.644C14.104 12 15 10.583 15 9.103c0-1.48-1.105-2.738-2.699-2.738z" fill="#fff"/></svg>
